!!!OTL-incipit: ES WOLLT EIN JAEGER JAGEN EIN HIRSCHLEIN ODER EIN REH
!!!ARE: Europa, Mitteleuropa, Deutschland
!!!SCT: Z0197
!!!TXL: @@DE
!!!YEM: Copyright 1995, estate of Helmut Schaffrath.
**kern	**text
*ICvox	*
*M6/8	*
*k[f#]	*
*G:	*
!LO:TX:a:t=Altdeutſch.	!
{8d	Es
=1	=1
4g	wollt
8a	ein
4b/	Jä-
8g	-ger
=2	=2
[4.dd	ja-
4dd]}	.
{8cc	-gen
=3	=3
8.b/	ein
16a	Hirſchlein
8g	.
4f#	oder
8g	ein
=4	=4
4.a	Reh,
4r}	.
{8g	drei
=5	=5
4dd	Stünd-
8dd	-lein
4b	vor
8g	dem
=6	=6
4.gg	Ta-
4dd}	-gen,
{8cc	ein
=7	=7
8.bL	Hirſch-
16aJ	.
8g	-lein
8.a	o-
16g	-der
8f#	ein
=8	=8
4.g	Reh.
4r}	.
==	==
!!!AGN: Soldaten -, Jaeger - Lied, Romanze
!!!ONB: ESAC (Essen Associative Code) Database: ZUCCAL
!!!AMT: compound duple
!!!AIN: vox
!!!EED: Helmut Schaffrath
!!!EEV: 1.0
!!!GTL: III. Soldaten-, Jaeger-, Schiffer-, Fuhrmanns- und Handwerks-Lieder.
!!!URL-scan: https://www.digitale-sammlungen.de/de/view/bsb11160571?page=366
!!!ENC: Anna Maria Matuszewska
!!!EEV: 2025/01/28
*-	*-
